src/info-circle-filled.svg

<svg xmlns="http://www.w3.org/2000/svg" class="dibsvg-svg dibsvg-info-circle-filled" viewBox="0 0 250 250">
    <path fill-rule="evenodd" d="M125.7.5C57.1.5 1.2 56.4 1.2 125s55.9 124.5 124.5 124.5S250.2 193.6 250.2 125 194.4.5 125.7.5zm14 50.7c-3.3 0-6.1 1.3-8.4 3.9-2.4 2.6-3.6 5.7-3.6 9.2 0 3.3 1.2 6.3 3.6 8.9 2.4 2.6 5.2 3.9 8.4 3.9 3.5 0 6.5-1.4 8.8-4.1 2.4-2.7 3.6-5.9 3.6-9.6 0-3.3-1.2-6.1-3.5-8.6-2.3-2.3-5.3-3.6-8.9-3.6zm-4.9 136.7c-3.6 0-6.3-.7-7.9-2-1.6-1.3-2.4-3.8-2.4-7.5 0-1.5.2-3.5.7-5.9.5-2.4 1-4.9 1.7-7.4l10.2-40.8c.5-2 .9-4 1.2-6 .3-2 .4-3.6.4-4.7 0-4.2-1.2-7.6-3.6-10.1-2.4-2.5-6.2-3.7-11.4-3.7-2.3 0-5.4.5-9.4 1.6s-8.4 2.8-13.4 5l-1.4 6.1c1.2-.3 3-.7 5.3-1.2 2.3-.4 4.2-.7 5.6-.7 3.6 0 6.1.6 7.2 1.8 1.2 1.2 1.8 3.6 1.8 7.2 0 1.8-.2 4-.7 6.5-.5 2.6-1 5-1.5 7.2l-10.1 40.8c-.6 2.4-1 4.5-1.2 6.1-.3 1.6-.4 3.1-.4 4.6 0 3.9 1.3 7.2 3.8 9.8 2.6 2.7 6.4 4 11.5 4 2.5 0 5.5-.5 9-1.4 3.5-.9 8.2-2.6 14.1-4.9l1.4-6.1c-1.2.4-3 .8-5.2 1.2-2.3.4-4.1.5-5.3.5z"/>
</svg>

<svg xmlns="http://www.w3.org/2000/svg" class="dibsvg-svg dibsvg-info-circle-filled" viewBox="0 0 250 250">
    <path fill-rule="evenodd" d="M125.7,0.5 C57.1,0.5 1.20000005,56.4 1.20000005,125 C1.20000005,193.6 57.1,249.5 125.7,249.5 C194.3,249.5 250.2,193.6 250.2,125 C250.2,56.4 194.4,0.5 125.7,0.5 L125.7,0.5 L125.7,0.5 Z M139.7,51.2 C136.4,51.2 133.6,52.5 131.3,55.1 C128.9,57.7 127.7,60.8 127.7,64.3 C127.7,67.6 128.9,70.6 131.3,73.2 C133.7,75.8 136.5,77.1 139.7,77.1 C143.2,77.1 146.2,75.7 148.5,73 C150.9,70.3 152.1,67.1 152.1,63.4 C152.1,60.1 150.9,57.3 148.6,54.8 C146.3,52.5 143.3,51.2 139.7,51.2 L139.7,51.2 L139.7,51.2 Z M134.8,187.9 C131.2,187.9 128.5,187.2 126.9,185.9 C125.3,184.6 124.5,182.1 124.5,178.4 C124.5,176.9 124.7,174.9 125.2,172.5 C125.7,170.1 126.2,167.6 126.9,165.1 L137.1,124.3 C137.6,122.3 138,120.3 138.3,118.3 C138.6,116.3 138.7,114.7 138.7,113.6 C138.7,109.4 137.5,106 135.1,103.5 C132.7,101 128.9,99.8 123.7,99.8 C121.4,99.8 118.3,100.3 114.3,101.4 C110.3,102.5 105.9,104.2 100.9,106.4 L99.5,112.5 C100.7,112.2 102.5,111.8 104.8,111.3 C107.1,110.9 109,110.6 110.4,110.6 C114,110.6 116.5,111.2 117.6,112.4 C118.8,113.6 119.4,116 119.4,119.6 C119.4,121.4 119.2,123.6 118.7,126.1 C118.2,128.7 117.7,131.1 117.2,133.3 L107.1,174.1 C106.5,176.5 106.1,178.6 105.9,180.2 C105.6,181.8 105.5,183.3 105.5,184.8 C105.5,188.7 106.8,192 109.3,194.6 C111.9,197.3 115.7,198.6 120.8,198.6 C123.3,198.6 126.3,198.1 129.8,197.2 C133.3,196.3 138,194.6 143.9,192.3 L145.3,186.2 C144.1,186.6 142.3,187 140.1,187.4 C137.8,187.8 136,187.9 134.8,187.9 L134.8,187.9 L134.8,187.9 Z"/>
</svg>
